packages/match-logos/mono/svg/1-800-flowers.svg

<svg fill="none" height="44" viewBox="0 0 99 44" width="99" xmlns="http://www.w3.org/2000/svg"><path clip-rule="evenodd" d="m43.3456 16.8552c-.392 0-.7839.392-.7839 1.078.0643.6772.3787 1.3061.8819 1.7639.4311-.4486.6763-1.0438.686-1.6659.098-.784-.294-1.176-.784-1.176zm-23.6169-16.8552c2.4499.88196 3.8218 3.52784 4.6058 5.97773-4.1158 3.23385-7.7417 9.01557-6.3697 14.50337-2.3519-.588-4.0178-3.0379-4.6058-5.4878-.2853-1.2388-.2458-2.5302.1147-3.7492.3606-1.219 1.0299-2.32422 1.9432-3.20847 2.1559-2.1559 4.6058-4.80178 4.3118-8.03563zm9.7996 4.70379c-2.7439 3.13585-1.274 7.44761-2.9399 11.07351-.98 2.4499-2.4499 4.6058-5.0958 5.5857-.6719.196-1.3859.196-2.0579 0-1.1759-3.8218.294-8.2316 2.7439-11.36745 1.8694-2.45528 4.4282-4.29763 7.3497-5.29176zm9.7015 15.48331c.2479.034.4779.1482.6548.3251.1769.177.2911.4069.3252.6548 0 .2599-.1033.5092-.2871.693-.1837.1837-.433.287-.6929.287s-.5091-.1033-.6929-.287c-.1838-.1838-.287-.4331-.287-.693-.0087-.1309.0107-.2622.0569-.385s.1181-.2343.2109-.3271c.0927-.0928.2043-.1647.3271-.2109s.2541-.0656.385-.0569zm16.9532-3.4299c-.5879 0-.6859.98-.6859 3.0379v2.7439c0 1.8619.098 2.7439.6859 2.7439.588 0 .686-.98.686-3.0379v-2.7439c0-1.8619-.098-2.7439-.686-2.7439zm-6.5657 0c-.5879 0-.6859.98-.6859 3.0379v2.7439c0 1.8619.098 2.7439.6859 2.7439.588 0 .686-.98.686-3.0379v-3.0379c-.098-1.6659-.098-2.4499-.686-2.4499zm-6.5657 5.3898c-.4694.5424-.7146 1.2432-.6859 1.9599 0 .784.392 1.2739.9799 1.2739.588 0 .98-.4899.98-1.1759-.1823-.8093-.6309-1.5339-1.274-2.0579zm-5.6837-6.7617v9.7016h1.1759v1.6659h-4.5077v-1.6659h1.2739v-7.3497l-1.176.196v-1.274c.8077-.2518 1.5457-.6879 2.1559-1.2739zm18.8151-.098c1.862 0 2.8419 1.8619 2.8419 5.7817 0 3.9199-.9799 5.8798-2.7439 5.8798-1.7639 0-2.8418-1.9599-2.8418-5.8798 0-3.9198.9799-5.7817 2.7438-5.7817zm-6.5657 0c1.862 0 2.8419 1.8619 2.8419 5.7817 0 3.9199-.9799 5.8798-2.7439 5.8798-1.9599 0-2.8418-1.9599-2.8418-5.8798 0-3.9198.8819-5.7817 2.7438-5.7817zm-6.3697 0c.3337-.0299.67.0122.986.1234.3161.1112.6046.2889.8461.5211s.4304.5136.5538.825c.1235.3115.1788.6458.162.9804.0008.5326-.1229 1.058-.361 1.5344-.2382.4764-.5844.8905-1.0109 1.2095.476.418.8609.9295 1.1306 1.5028.2697.5732.4186 1.1958.4373 1.829.0444.393.0029.7909-.1214 1.1663s-.3286.7194-.5988 1.0082-.5998.5155-.9661.6646c-.3662.149-.7605.2169-1.1556.1988-.3727.0148-.7444-.0493-1.0906-.1882s-.6591-.3494-.9182-.6178c-.2591-.2683-.4586-.5885-.5852-.9393-.1267-.3509-.1778-.7246-.1498-1.0966.0031-.5916.1579-1.1725.4495-1.6872.2917-.5147.7105-.946 1.2164-1.2527-.8054-.8163-1.2921-1.8939-1.372-3.0378-.0112-.6977.2476-1.3728.7224-1.8841.4748-.5114 1.1289-.8194 1.8255-.8598zm18.6192 15.8753c-1.176 0-1.4699 1.5679-1.4699 2.9399v.5879h2.9398v-.098c0-2.1559-.294-3.4298-1.4699-3.4298zm-24.1069 0c-1.47 0-1.5679 2.1559-1.5679 5.0958 0 2.9398.1959 5.0957 1.5679 5.0957 1.1759 0 1.5679-1.4699 1.5679-5.0957 0-3.6259-.294-5.0958-1.5679-5.0958zm53.0156 7.9376c-.392 0-.49.588-.49 1.7639 0 1.176.098 1.764.49 1.764.3919 0 .4899-.49.4899-1.764 0-1.2739-.098-1.7639-.4899-1.7639zm6.4677-.9799c.5879 0 .7839.3919.7839.9799v4.3118h-1.1759v-4.0178c0-.196-.098-.392-.294-.392-.1474.0246-.2839.0929-.392.196v4.0178h-1.1759v-4.0178c0-.196-.098-.392-.294-.392-.0758.0015-.1503.0198-.2182.0537-.0678.0339-.1271.0826-.1738.1423v4.0178h-1.1759v-5.0957h1.1759v.49c.392-.392.686-.588.98-.588.1797-.0134.3581.0388.5023.1469.1441.1081.2442.2648.2816.4411.3826-.1326.7761-.2309 1.176-.294zm-65.657-14.5034v19.8931h-2.9399v-19.8931zm41.6481 4.9978v3.6258c-.294 0-.588-.098-.882-.098-.9799 0-2.1559.686-2.1559 2.6459v8.7216h-2.9399v-14.6013h2.8419v1.9599h.098c.588-1.4699 1.4699-2.3519 2.6459-2.3519.098.098.196.098.392.098zm-27.7328.294 1.372 10.2895 1.4699-10.2895h3.2339l1.5679 10.2895 1.4699-10.2895h2.7439l-2.5479 14.6013h-3.3318l-1.47-10.2895h-.098l-1.3719 10.2895h-3.5278l-2.4499-14.5033h2.9398zm41.5501 9.1136c.98 0 1.47.6859 1.47 1.8619v.196h-1.078v-.196c0-.588-.098-.882-.392-.882-.2939 0-.3919.49-.3919 1.47 0 1.4699.098 2.0579.3919 2.0579.294 0 .49-.392.49-.98v-.098l.98.098c0 1.4699-.588 2.1559-1.568 2.1559-.9799 0-1.6659-.8819-1.6659-2.6459.098-1.9599.686-3.0378 1.7639-3.0378zm3.7239 0c1.1759 0 1.7639.8819 1.7639 2.7438 0 1.862-.686 2.7439-1.7639 2.7439-1.078 0-1.764-.9799-1.764-2.7439 0-1.7639.588-2.7438 1.764-2.7438zm-63.2072-14.7974v2.6459h-.5879c-.784 0-1.078.294-1.078 1.176v1.8619h1.7639v2.5479h-1.7639v11.9554h-2.9398v-11.9554h-1.47v-2.5479h1.47v-2.2539c0-2.6459 1.1759-3.5279 3.0378-3.5279.5181.0846 1.0433.1174 1.5679.098zm56.0535 18.4232c.2599 0 .5092.1033.6929.287.1838.1838.287.4331.287.693-.0114.2567-.1159.5006-.2939.6859-.0864.0957-.1924.1715-.3108.2222-.1184.0508-.2464.0753-.3752.0718-.2568-.0114-.5006-.1159-.686-.294-.1035-.0797-.1849-.1845-.2364-.3046s-.0713-.2514-.0576-.3813c-.0034-.1288.0211-.2568.0718-.3753.0508-.1184.1266-.2244.2222-.3107.1854-.178.4292-.2825.686-.294zm-21.755-13.0334c3.4298 0 4.2138 2.9399 4.2138 7.3497v.7839h-5.7817v1.176c0 1.7639.3919 3.3318 1.4699 3.3318 1.0779 0 1.3719-.9799 1.5679-2.7438h2.6459c-.098 3.3318-1.3719 5.2917-4.1158 5.2917-4.3118 0-4.4098-4.1158-4.4098-7.7416-.098-3.8219.49-7.4477 4.4098-7.4477zm-19.5991 7.6437c0 4.9977-1.078 7.6436-4.5078 7.6436-3.4299 0-4.5078-2.6459-4.5078-7.6436 0-4.9978 1.0779-7.6437 4.5078-7.6437 3.4298 0 4.5078 2.6459 4.5078 7.6437zm-42.2361006-28.32076c.0979956-.19599.2939866-.19599.4899776-.098 4.605793 3.33186 7.643653 8.62366 10.485523 14.01336 1.476 2.7424 2.6585 5.633 3.5278 8.6236.8191-2.9788 1.9353-5.8679 3.3319-8.6236.0109-.0399.03-.0771.0563-.1091.0262-.0319.0589-.058.0959-.0765.0369-.0185.0774-.029.1188-.0308.0413-.0018.0825.0052.121.0204l.294.294c-.294 2.6459-1.274 5.1938-1.862 7.7416-.5074 1.8859-.7708 3.829-.7839 5.7818-.0808 2.2.0835 4.4021.49 6.5657-.0612.4572-.229.8936-.49 1.2739-.3004.2888-.6726.4918-1.078.588-.9799.196-1.8619-.686-2.0579-1.8619.686-6.5657-1.4699-12.7394-3.52782-18.6192-2.93987-5.0957-4.99777-10.9755-9.113585-14.79729-.0628836-.10135-.1040604-.21464-.12092781-.33271-.01686745-.11807-.00905885-.23836.02293221-.35326zm78.1024006 20.67706c2.6459 0 3.9199 1.4699 3.9199 4.1158v.588h-2.6459c0-1.4699-.392-2.1559-1.274-2.1559-.8819 0-1.3719.49-1.3719 1.5679.0035.3898.1279.7688.3561 1.0848s.5489.5533.9178.6791l1.764.784c1.8619.784 2.5478 1.9599 2.5478 4.1158 0 3.0379-1.7639 4.6058-4.3118 4.6058-3.3318 0-4.2138-1.8619-4.2138-4.6058v-.49l2.5479-.098v.49c0 1.274.49 2.1559 1.5679 2.1559.882 0 1.47-.588 1.47-1.7639.0227-.3566-.0698-.711-.2639-1.011-.1941-.2999-.4795-.5295-.8141-.6549l-2.0579-.98c-.7753-.3319-1.4279-.8973-1.867-1.6174s-.6428-1.5591-.5829-2.4004c.196-2.4499 1.372-4.4098 4.3118-4.4098z" fill="#1f304c" fill-rule="evenodd"/></svg>

<svg width="99" height="44" viewBox="0 0 99 44" fill="none" xmlns="http://www.w3.org/2000/svg">
<path fill-rule="evenodd" clip-rule="evenodd" d="M43.3456 16.8552C42.9536 16.8552 42.5617 17.2472 42.5617 17.9332C42.626 18.6104 42.9404 19.2393 43.4436 19.6971C43.8747 19.2485 44.1199 18.6533 44.1296 18.0312C44.2276 17.2472 43.8356 16.8552 43.3456 16.8552ZM19.7287 0C22.1786 0.88196 23.5505 3.52784 24.3345 5.97773C20.2187 9.21158 16.5928 14.9933 17.9648 20.4811C15.6129 19.8931 13.947 17.4432 13.359 14.9933C13.0737 13.7545 13.1132 12.4631 13.4737 11.2441C13.8343 10.0251 14.5036 8.91988 15.4169 8.03563C17.5728 5.87973 20.0227 3.23385 19.7287 0ZM29.5283 4.70379C26.7844 7.83964 28.2543 12.1514 26.5884 15.7773C25.6084 18.2272 24.1385 20.3831 21.4926 21.363C20.8207 21.559 20.1067 21.559 19.4347 21.363C18.2588 17.5412 19.7287 13.1314 22.1786 9.99555C24.048 7.54027 26.6068 5.69792 29.5283 4.70379ZM39.2298 20.1871C39.4777 20.2211 39.7077 20.3353 39.8846 20.5122C40.0615 20.6892 40.1757 20.9191 40.2098 21.167C40.2098 21.4269 40.1065 21.6762 39.9227 21.86C39.739 22.0437 39.4897 22.147 39.2298 22.147C38.9699 22.147 38.7207 22.0437 38.5369 21.86C38.3531 21.6762 38.2499 21.4269 38.2499 21.167C38.2412 21.0361 38.2606 20.9048 38.3068 20.782C38.353 20.6592 38.4249 20.5477 38.5177 20.4549C38.6104 20.3621 38.722 20.2902 38.8448 20.244C38.9676 20.1978 39.0989 20.1784 39.2298 20.1871ZM56.183 16.7572C55.5951 16.7572 55.4971 17.7372 55.4971 19.7951V22.539C55.4971 24.4009 55.5951 25.2829 56.183 25.2829C56.771 25.2829 56.869 24.3029 56.869 22.245V19.5011C56.869 17.6392 56.771 16.7572 56.183 16.7572ZM49.6173 16.7572C49.0294 16.7572 48.9314 17.7372 48.9314 19.7951V22.539C48.9314 24.4009 49.0294 25.2829 49.6173 25.2829C50.2053 25.2829 50.3033 24.3029 50.3033 22.245V19.2071C50.2053 17.5412 50.2053 16.7572 49.6173 16.7572ZM43.0516 22.147C42.5822 22.6894 42.337 23.3902 42.3657 24.1069C42.3657 24.8909 42.7577 25.3808 43.3456 25.3808C43.9336 25.3808 44.3256 24.8909 44.3256 24.2049C44.1433 23.3956 43.6947 22.671 43.0516 22.147ZM37.3679 15.3853V25.0869H38.5438V26.7528H34.0361V25.0869H35.31V17.7372L34.134 17.9332V16.6592C34.9417 16.4074 35.6797 15.9713 36.2899 15.3853H37.3679ZM56.183 15.2873C58.045 15.2873 59.0249 17.1492 59.0249 21.069C59.0249 24.9889 58.045 26.9488 56.281 26.9488C54.5171 26.9488 53.4392 24.9889 53.4392 21.069C53.4392 17.1492 54.4191 15.2873 56.183 15.2873ZM49.6173 15.2873C51.4793 15.2873 52.4592 17.1492 52.4592 21.069C52.4592 24.9889 51.4793 26.9488 49.7153 26.9488C47.7554 26.9488 46.8735 24.9889 46.8735 21.069C46.8735 17.1492 47.7554 15.2873 49.6173 15.2873ZM43.2476 15.2873C43.5813 15.2574 43.9176 15.2995 44.2336 15.4107C44.5497 15.5219 44.8382 15.6996 45.0797 15.9318C45.3212 16.164 45.5101 16.4454 45.6335 16.7568C45.757 17.0683 45.8123 17.4026 45.7955 17.7372C45.7963 18.2698 45.6726 18.7952 45.4345 19.2716C45.1963 19.748 44.8501 20.1621 44.4236 20.4811C44.8996 20.8991 45.2845 21.4106 45.5542 21.9839C45.8239 22.5571 45.9728 23.1797 45.9915 23.8129C46.0359 24.2059 45.9944 24.6038 45.8701 24.9792C45.7458 25.3546 45.5415 25.6986 45.2713 25.9874C45.0011 26.2762 44.6715 26.5029 44.3052 26.652C43.939 26.801 43.5447 26.8689 43.1496 26.8508C42.7769 26.8656 42.4052 26.8015 42.059 26.6626C41.7128 26.5237 41.3999 26.3132 41.1408 26.0448C40.8817 25.7765 40.6822 25.4563 40.5556 25.1055C40.4289 24.7546 40.3778 24.3809 40.4058 24.0089C40.4089 23.4173 40.5637 22.8364 40.8553 22.3217C41.147 21.807 41.5658 21.3757 42.0717 21.069C41.2663 20.2527 40.7796 19.1751 40.6997 18.0312C40.6885 17.3335 40.9473 16.6584 41.4221 16.1471C41.8969 15.6357 42.551 15.3277 43.2476 15.2873ZM61.8668 31.1626C60.6908 31.1626 60.3969 32.7305 60.3969 34.1025V34.6904H63.3367V34.5924C63.3367 32.4365 63.0427 31.1626 61.8668 31.1626ZM37.7599 31.1626C36.2899 31.1626 36.192 33.3185 36.192 36.2584C36.192 39.1982 36.3879 41.3541 37.7599 41.3541C38.9358 41.3541 39.3278 39.8842 39.3278 36.2584C39.3278 32.6325 39.0338 31.1626 37.7599 31.1626ZM90.7755 39.1002C90.3835 39.1002 90.2855 39.6882 90.2855 40.8641C90.2855 42.0401 90.3835 42.6281 90.7755 42.6281C91.1674 42.6281 91.2654 42.1381 91.2654 40.8641C91.2654 39.5902 91.1674 39.1002 90.7755 39.1002ZM97.2432 38.1203C97.8311 38.1203 98.0271 38.5122 98.0271 39.1002V43.412H96.8512V39.3942C96.8512 39.1982 96.7532 39.0022 96.5572 39.0022C96.4098 39.0268 96.2733 39.0951 96.1652 39.1982V43.216H94.9893V39.1982C94.9893 39.0022 94.8913 38.8062 94.6953 38.8062C94.6195 38.8077 94.545 38.826 94.4771 38.8599C94.4093 38.8938 94.35 38.9425 94.3033 39.0022V43.02H93.1274V37.9243H94.3033V38.4143C94.6953 38.0223 94.9893 37.8263 95.2833 37.8263C95.463 37.8129 95.6414 37.8651 95.7856 37.9732C95.9297 38.0813 96.0298 38.238 96.0672 38.4143C96.4498 38.2817 96.8433 38.1834 97.2432 38.1203ZM31.5862 23.6169V43.51H28.6463V23.6169H31.5862ZM73.2343 28.6147V32.2405C72.9403 32.2405 72.6463 32.1425 72.3523 32.1425C71.3724 32.1425 70.1964 32.8285 70.1964 34.7884V43.51H67.2565V28.9087H70.0984V30.8686H70.1964C70.7844 29.3987 71.6663 28.5167 72.8423 28.5167C72.9403 28.6147 73.0383 28.6147 73.2343 28.6147ZM45.5015 28.9087L46.8735 39.1982L48.3434 28.9087H51.5773L53.1452 39.1982L54.6151 28.9087H57.359L54.8111 43.51H51.4793L50.0093 33.2205H49.9113L48.5394 43.51H45.0116L42.5617 29.0067H45.5015V28.9087ZM87.0516 38.0223C88.0316 38.0223 88.5216 38.7082 88.5216 39.8842V40.0802H87.4436V39.8842C87.4436 39.2962 87.3456 39.0022 87.0516 39.0022C86.7577 39.0022 86.6597 39.4922 86.6597 40.4722C86.6597 41.9421 86.7577 42.5301 87.0516 42.5301C87.3456 42.5301 87.5416 42.1381 87.5416 41.5501V41.4521L88.5216 41.5501C88.5216 43.02 87.9336 43.706 86.9536 43.706C85.9737 43.706 85.2877 42.8241 85.2877 41.0601C85.3857 39.1002 85.9737 38.0223 87.0516 38.0223ZM90.7755 38.0223C91.9514 38.0223 92.5394 38.9042 92.5394 40.7661C92.5394 42.6281 91.8534 43.51 90.7755 43.51C89.6975 43.51 89.0115 42.5301 89.0115 40.7661C89.0115 39.0022 89.5995 38.0223 90.7755 38.0223ZM27.5683 23.2249V25.8708H26.9804C26.1964 25.8708 25.9024 26.1648 25.9024 27.0468V28.9087H27.6663V31.4566H25.9024V43.412H22.9626V31.4566H21.4926V28.9087H22.9626V26.6548C22.9626 24.0089 24.1385 23.1269 26.0004 23.1269C26.5185 23.2115 27.0437 23.2443 27.5683 23.2249ZM83.6218 41.6481C83.8817 41.6481 84.131 41.7514 84.3147 41.9351C84.4985 42.1189 84.6017 42.3682 84.6017 42.6281C84.5903 42.8848 84.4858 43.1287 84.3078 43.314C84.2214 43.4097 84.1154 43.4855 83.997 43.5362C83.8786 43.587 83.7506 43.6115 83.6218 43.608C83.365 43.5966 83.1212 43.4921 82.9358 43.314C82.8323 43.2343 82.7509 43.1295 82.6994 43.0094C82.6479 42.8893 82.6281 42.758 82.6418 42.6281C82.6384 42.4993 82.6629 42.3713 82.7136 42.2528C82.7644 42.1344 82.8402 42.0284 82.9358 41.9421C83.1212 41.7641 83.365 41.6596 83.6218 41.6481ZM61.8668 28.6147C65.2966 28.6147 66.0806 31.5546 66.0806 35.9644V36.7483H60.2989V37.9243C60.2989 39.6882 60.6908 41.2561 61.7688 41.2561C62.8467 41.2561 63.1407 40.2762 63.3367 38.5123H65.9826C65.8846 41.8441 64.6107 43.804 61.8668 43.804C57.555 43.804 57.457 39.6882 57.457 36.0624C57.359 32.2405 57.947 28.6147 61.8668 28.6147ZM42.2677 36.2584C42.2677 41.2561 41.1897 43.902 37.7599 43.902C34.33 43.902 33.2521 41.2561 33.2521 36.2584C33.2521 31.2606 34.33 28.6147 37.7599 28.6147C41.1897 28.6147 42.2677 31.2606 42.2677 36.2584ZM0.0315994 7.93764C0.129595 7.74165 0.325586 7.74165 0.521577 7.83964C5.12737 11.1715 8.16523 16.4633 11.0071 21.853C12.4831 24.5954 13.6656 27.486 14.5349 30.4766C15.354 27.4978 16.4702 24.6087 17.8668 21.853C17.8777 21.8131 17.8968 21.7759 17.9231 21.7439C17.9493 21.712 17.982 21.6859 18.019 21.6674C18.0559 21.6489 18.0964 21.6384 18.1378 21.6366C18.1791 21.6348 18.2203 21.6418 18.2588 21.657L18.5528 21.951C18.2588 24.5969 17.2788 27.1448 16.6908 29.6926C16.1834 31.5785 15.92 33.5216 15.9069 35.4744C15.8261 37.6744 15.9904 39.8765 16.3969 42.0401C16.3357 42.4973 16.1679 42.9337 15.9069 43.314C15.6065 43.6028 15.2343 43.8058 14.8289 43.902C13.849 44.098 12.967 43.216 12.771 42.0401C13.457 35.4744 11.3011 29.3007 9.24318 23.4209C6.30331 18.3252 4.24541 12.4454 0.129595 8.62361C0.0667114 8.52226 0.0255346 8.40897 0.00866719 8.2909C-0.00820026 8.17283 -0.000391664 8.05254 0.0315994 7.93764ZM78.134 28.6147C80.7799 28.6147 82.0539 30.0846 82.0539 32.7305V33.3185H79.408C79.408 31.8486 79.016 31.1626 78.134 31.1626C77.2521 31.1626 76.7621 31.6526 76.7621 32.7305C76.7656 33.1203 76.89 33.4993 77.1182 33.8153C77.3464 34.1313 77.6671 34.3686 78.036 34.4944L79.8 35.2784C81.6619 36.0624 82.3478 37.2383 82.3478 39.3942C82.3478 42.4321 80.5839 44 78.036 44C74.7042 44 73.8222 42.1381 73.8222 39.3942V38.9042L76.3701 38.8062V39.2962C76.3701 40.5702 76.8601 41.4521 77.938 41.4521C78.82 41.4521 79.408 40.8641 79.408 39.6882C79.4307 39.3316 79.3382 38.9772 79.1441 38.6772C78.95 38.3773 78.6646 38.1477 78.33 38.0223L76.2721 37.0423C75.4968 36.7104 74.8442 36.145 74.4051 35.4249C73.966 34.7048 73.7623 33.8658 73.8222 33.0245C74.0182 30.5746 75.1942 28.6147 78.134 28.6147Z" fill="#1F304C"/>
</svg>
